X:1
T: Bonnie Stronshiray
C:
R:Strathspey
Q:128
K:A
M:4/4
L:1/16
|:E2D2|CE3 F3A c6B2|AA3 c3e f6f2|e3f a3f e2c2 B2A2|d3c BA3 B4 c3B|
A3B ce3 f4 e3c|d3e f2a2 c'4 b3c'|((3b2a2f2) ((3d2c2B2) ((3a2f2e2) ((3c2B2A2)|e3A FE3 A2B2:|
|:c2e2|f3e fa3 b4 a3f|e3f a2c2 e6e2|((3f2g2a2) ((3e2g2a2) ((3d2g2a2) c3c|B3A FA3 e4 c3d|
e3a g3a f3a e3c|db3 ca3 B6c2|d2B2 G2E2 c2A2 E2C2|((3D2E2F2) E3G A4:|
